X:1
T:Springleik i C (#1)     % name
C:e. Thorvald Tronsgrd, Folldal (1892 - 1986)     % composer
N:Springleik fr. Folldal     % info
Q:1/4=120     %Tempo
M:3/4     %Meter
L:1/8     %
K:C
ue |{e}f>e d<e {e}f>a | (3gab a/g/f e>(g | f>)(e d<)e {g}f>d | g>(e f)d/f/ e/(c/e) |
{e}f>e d<e {e}f>a |(3gab a/g/f e>(g  |f)d/f/ e/(c/e) {c}d>B |G/A/B u{B}c3 :|
|:ue |{e}f2 (d<e) c>e | d/e/f (f<e) (e<a) | ge/g/ f/(d/f) (3e(ce) |"-----3-----" {c}d2 (dg) g>e |
{e}f2 (d<e) c>e | d/e/f (f<e) (e<a) | fd/f/ e/(c/e) {c}d>B | G/A/B u{B}c3  :|
W:
W: * the first 5 notes of meas. 2 & 6 are equal in length, and fast.
W:
W:Taught by Marit Larsen Westling, 2/19/05;  transcr. by Sarah Kirton, 2/21/05;
W: Scandia Festival, Petaluma CA
W:
W:Most of the 16ths & dotted 8ths on the second beats were more like triplets - i.e. 1/3 + 2/3.
W:So the rhythm was softer than what's written here by a little bit.  But most of the
W:rhythms were very angular.
W:
W:She referred to all of the (1/8 + 1/16 + 1/16) beats as "triplets."   But her transcriptions
W:from Mendocino summer '04 show these rhythms as above, which is close to how she plays
W:these.

